X: 458
T: Fangyang ge
L: 1/8
M: 2/4
K: F
d f c A [I:setbarnb 1]| 
d f c A | 
d4 | 
c2c d | 
d c A F | 
G4 | 
A c d f | 
A G F D | 
A A/ c/ G F | 
D4 |]

@@@ Tune index: 9332
